static/assets/img/icons/theme/communication/chat-2.svg

<svg height="24" viewBox="0 0 24 24" width="24" xmlns="http://www.w3.org/2000/svg"><g fill="none" fill-rule="evenodd"><path d="m0 0h24v24h-24z" opacity="0"/><g fill="#000"><path d="m5 15-2 6.5 6.5-2z" opacity=".3"/><path d="m13.5 21c-5.24670512 0-9.5-4.2532949-9.5-9.5 0-5.24670512 4.25329488-9.5 9.5-9.5 5.2467051 0 9.5 4.25329488 9.5 9.5 0 5.2467051-4.2532949 9.5-9.5 9.5zm-4.5-13c-.55228475 0-1 .44771525-1 1s.44771525 1 1 1h9c.5522847 0 1-.44771525 1-1s-.4477153-1-1-1zm0 4c-.55228475 0-1 .4477153-1 1s.44771525 1 1 1h5c.5522847 0 1-.4477153 1-1s-.4477153-1-1-1z"/></g></g></svg>

<svg width="24px" height="24px" viewBox="0 0 24 24" version="1.1" xmlns="http://www.w3.org/2000/svg" xmlns:xlink="http://www.w3.org/1999/xlink">
    <title>Icon For Chat#2</title>
    <g stroke="none" stroke-width="1" fill="none" fill-rule="evenodd">
        <rect opacity="0" x="0" y="0" width="24" height="24"></rect>
        <polygon fill="#000000" opacity="0.3" points="5 15 3 21.5 9.5 19.5"></polygon>
        <path d="M13.5,21 C8.25329488,21 4,16.7467051 4,11.5 C4,6.25329488 8.25329488,2 13.5,2 C18.7467051,2 23,6.25329488 23,11.5 C23,16.7467051 18.7467051,21 13.5,21 Z M9,8 C8.44771525,8 8,8.44771525 8,9 C8,9.55228475 8.44771525,10 9,10 L18,10 C18.5522847,10 19,9.55228475 19,9 C19,8.44771525 18.5522847,8 18,8 L9,8 Z M9,12 C8.44771525,12 8,12.4477153 8,13 C8,13.5522847 8.44771525,14 9,14 L14,14 C14.5522847,14 15,13.5522847 15,13 C15,12.4477153 14.5522847,12 14,12 L9,12 Z" fill="#000000"></path>
    </g>
</svg>
